icons/communication/email-arrow-left-1-24.svg

<svg width="24" height="24" viewBox="0 0 24 24" fill="none" xmlns="http://www.w3.org/2000/svg">
<g clip-path="url(#clip0_248_24)">
<path d="M18.7776 21.6389L16.6427 19.2947H22.2526C22.4508 19.2947 22.6409 19.2115 22.7811 19.0634C22.9213 18.9154 23 18.7146 23 18.5052C23 18.2958 22.9213 18.095 22.7811 17.9469C22.6409 17.7989 22.4508 17.7157 22.2526 17.7157H16.6427L18.7776 15.3715C18.8504 15.301 18.9093 15.216 18.9508 15.1213C18.9923 15.0267 19.0157 14.9243 19.0195 14.8201C19.0233 14.7158 19.0076 14.6118 18.9731 14.5141C18.9387 14.4163 18.8862 14.3267 18.8188 14.2505C18.7514 14.1743 18.6703 14.1129 18.5803 14.07C18.4903 14.027 18.3932 14.0034 18.2944 14.0003C18.1957 13.9973 18.0974 14.015 18.0052 14.0523C17.913 14.0896 17.8287 14.1459 17.7572 14.2178L14.2371 17.9283C14.1623 18.0022 14.1026 18.0915 14.0618 18.1907C14.021 18.29 14 18.397 14 18.5052C14 18.6134 14.021 18.7204 14.0618 18.8196C14.1026 18.9188 14.1623 19.0082 14.2371 19.082L17.7572 22.7926C17.9024 22.9331 18.0943 23.0075 18.2911 22.9994C18.4879 22.9913 18.6738 22.9015 18.8083 22.7495C18.9428 22.5975 19.015 22.3955 19.0092 22.1875C19.0035 21.9795 18.9203 21.7824 18.7776 21.6389Z" fill="black"/>
<path fill-rule="evenodd" clip-rule="evenodd" d="M0 4.75C0 3.7835 0.783502 3 1.75 3H22.25C23.2165 3 24 3.7835 24 4.75V11.375C24 11.7892 23.6642 12.125 23.25 12.125C22.8358 12.125 22.5 11.7892 22.5 11.375V7.18716L12.7516 11.8231C12.276 12.0492 11.724 12.0492 11.2484 11.8231L1.5 7.18715V18.75C1.5 18.8881 1.61193 19 1.75 19H9.25C9.66421 19 10 19.3358 10 19.75C10 20.1642 9.66421 20.5 9.25 20.5H1.75C0.783502 20.5 0 19.7165 0 18.75V4.75ZM1.5 5.52618L11.8926 10.4685C11.9606 10.5008 12.0394 10.5008 12.1074 10.4685L22.5 5.52618V4.75C22.5 4.61193 22.3881 4.5 22.25 4.5H1.75C1.61193 4.5 1.5 4.61193 1.5 4.75V5.52618Z" fill="black"/>
</g>
<defs>
<clipPath id="clip0_248_24">
<rect width="24" height="24" fill="white"/>
</clipPath>
</defs>
</svg>

<svg xmlns="http://www.w3.org/2000/svg" width="24" height="24"><path d="M18.778 21.639l-2.135-2.344h5.61a.728.728 0 00.528-.232.812.812 0 00.219-.558c0-.21-.079-.41-.219-.558a.728.728 0 00-.528-.231h-5.61l2.135-2.345a.825.825 0 00.041-1.121.75.75 0 00-.239-.18.714.714 0 00-.823.148l-3.52 3.71a.792.792 0 00-.175.263.828.828 0 00.175.891l3.52 3.71a.723.723 0 00.534.207.731.731 0 00.517-.25.815.815 0 00.201-.561.81.81 0 00-.231-.55z"/><path fill-rule="evenodd" d="M0 4.75C0 3.784.784 3 1.75 3h20.5c.966 0 1.75.784 1.75 1.75v6.625a.75.75 0 01-1.5 0V7.187l-9.748 4.636a1.75 1.75 0 01-1.504 0L1.5 7.187V18.75c0 .138.112.25.25.25h7.5a.75.75 0 010 1.5h-7.5A1.75 1.75 0 010 18.75v-14zm1.5.776l10.393 4.943a.25.25 0 00.214 0L22.5 5.526V4.75a.25.25 0 00-.25-.25H1.75a.25.25 0 00-.25.25v.776z"/></svg>
